X: 1
T:The Rose Of Arranmore  "CYMRU"
M:3/4
L:1/8
Q:80
C:F.A. Sterling
S:Old Air
K:HP
{g}ec|
{d}A4{g}c2|
{gef}e4{g}c/2{d}A3/2|  !
{Gdc}d4f2|
{ag}a3gf2|
{gef}e4f2|  !
{gef}e4{g}c/2{d}A3/2|
{g}B6|
{gBd}B4e2|  !
{g}A4{g}c2|
{gef}e4{a}c/2{d}A3/2|
{Gdc}d4f2|  !
{ag}a3gf2|
{gef}e4c2|
{g}d3cG2|  !
{g}A6|
{GAG}A4:|
cA|  !
{Gdc}d4f|
{ag}a3gf2|
{gef}e4f2|  !
{gef}e4{g}c/2{d}A3/2|
{g}c4|
{gBd}B3cB2|  !
{d}G4{g}c2|
{gef}e4{g}c/2{d}A3/2|
{Gdc}d4f2|  !
{ag}a3gf2|
{gef}e4c2|
{g}d3BG2|  !
{g}A6|
{gAd}A4:|
